X: 21763
T: King Of The Fairies
R: hornpipe
M: 4/4
K: Eminor
|:B,2|EDEF GFGA|B2B2 A2GA|B2E2 EFGE|FGFE F2B,2|
EDEF GFGA|BAGB d3c|B2E2 GFE^D|E6:|
|:d2|e2e2 Bdef|gagf e3f|e2B2 BABc|dedc BcdB|
e2B2 Bdef|gagf efed|Bdeg fedf|e6 ef|
g3e f3d|edBc B3e|BAGF GABc|BAGF GFEF|
B,2E2 EFGA|B2e2 edef|e2B2 BAGF|E6:|

